themes/recalbox-multi-v3/gbc/data/icon_empty.svg

<svg xmlns="http://www.w3.org/2000/svg" baseProfile="tiny" viewBox="-290 382 30 30">
  <path fill="#B5B5B5" d="M-283 397h14l-7-12.2-7 12.2z"/>
  <path fill="#CECECE" d="M-280.8 395.7h9.8l-4.9-8.5-4.9 8.5z"/>
  <path fill="#A3A3A3" d="M-276 387.2v-2.4l7 12.2-2.1-1.3-4.9-8.5z"/>
  <path fill="#979797" d="M-283 397l2.1-1.3h9.8l2.1 1.3h-14z"/>
  <path fill="#B5B5B5" d="M-290 409.2h14l-7-12.2-7 12.2z"/>
  <path fill="#CECECE" d="M-287.9 407.8h9.8l-4.9-8.5-4.9 8.5z"/>
  <path fill="#A3A3A3" d="M-283 399.4V397l7 12.2-2.1-1.3-4.9-8.5z"/>
  <path fill="#979797" d="M-290 409.2l2.1-1.3h9.8l2.1 1.3h-14z"/>
  <path fill="#B5B5B5" d="M-276 409.2h14l-7-12.2-7 12.2z"/>
  <path fill="#CECECE" d="M-273.8 407.8h9.8l-4.9-8.5-4.9 8.5z"/>
  <path fill="#A3A3A3" d="M-268.9 399.4V397l7 12.2-2.1-1.3-4.9-8.5z"/>
  <path fill="#979797" d="M-276 409.2l2.1-1.3h9.8l2.1 1.3h-14z"/>
</svg>

<?xml version="1.0" encoding="utf-8"?>
<!-- Generator: Adobe Illustrator 19.0.0, SVG Export Plug-In . SVG Version: 6.00 Build 0)  -->
<svg version="1.1" baseProfile="tiny"
	 id="svg2" xmlns:rdf="http://www.w3.org/1999/02/22-rdf-syntax-ns#" xmlns:dc="http://purl.org/dc/elements/1.1/" xmlns:inkscape="http://www.inkscape.org/namespaces/inkscape" xmlns:sodipodi="http://sodipodi.sourceforge.net/DTD/sodipodi-0.dtd" xmlns:cc="http://creativecommons.org/ns#" xmlns:svg="http://www.w3.org/2000/svg" sodipodi:docname="icon_filled.svg" inkscape:version="0.91 r13725"
	 xmlns="http://www.w3.org/2000/svg" xmlns:xlink="http://www.w3.org/1999/xlink" x="0px" y="0px" viewBox="-290 382 30 30"
	 xml:space="preserve">
<sodipodi:namedview  inkscape:cy="13.376988" inkscape:cx="14.394621" inkscape:zoom="21.036212" bordercolor="#666666" objecttolerance="10" borderopacity="1" pagecolor="#ffffff" guidetolerance="10" gridtolerance="10" showgrid="false" id="namedview4" inkscape:current-layer="svg2" inkscape:window-maximized="1" inkscape:window-y="-8" inkscape:pageopacity="0" inkscape:window-x="-8" inkscape:window-height="1027" inkscape:window-width="1920" inkscape:pageshadow="2">
	</sodipodi:namedview>
<g>
	<path fill="#B5B5B5" d="M-283,397h14l-7-12.2L-283,397z"/>
	<path fill="#CECECE" d="M-280.8,395.7h9.8l-4.9-8.5L-280.8,395.7z"/>
	<path fill="#A3A3A3" d="M-276,387.2v-2.4l7,12.2l-2.1-1.3L-276,387.2z"/>
	<path fill="#979797" d="M-283,397l2.1-1.3h9.8l2.1,1.3H-283z"/>
	<path fill="#B5B5B5" d="M-290,409.2h14l-7-12.2L-290,409.2z"/>
	<path fill="#CECECE" d="M-287.9,407.8h9.8l-4.9-8.5L-287.9,407.8z"/>
	<path fill="#A3A3A3" d="M-283,399.4V397l7,12.2l-2.1-1.3L-283,399.4z"/>
	<path fill="#979797" d="M-290,409.2l2.1-1.3h9.8l2.1,1.3H-290z"/>
	<path fill="#B5B5B5" d="M-276,409.2h14l-7-12.2L-276,409.2z"/>
	<path fill="#CECECE" d="M-273.8,407.8h9.8l-4.9-8.5L-273.8,407.8z"/>
	<path fill="#A3A3A3" d="M-268.9,399.4V397l7,12.2l-2.1-1.3L-268.9,399.4z"/>
	<path fill="#979797" d="M-276,409.2l2.1-1.3h9.8l2.1,1.3H-276z"/>
</g>
</svg>
